public/media/instagram.svg

<svg width="50" height="50" viewBox="0 0 50 50" fill="none" xmlns="http://www.w3.org/2000/svg">
<path d="M24.9996 17.1001C20.5996 17.1001 17.0996 20.6001 17.0996 25.0001C17.0996 29.4001 20.5996 32.9001 24.9996 32.9001C29.3996 32.9001 32.8996 29.4001 32.8996 25.0001C32.8996 20.6001 29.3996 17.1001 24.9996 17.1001ZM24.9996 30.1001C22.1996 30.1001 19.8996 27.8001 19.8996 25.0001C19.8996 22.2001 22.1996 19.9001 24.9996 19.9001C27.7996 19.9001 30.0996 22.2001 30.0996 25.0001C30.0996 27.8001 27.7996 30.1001 24.9996 30.1001Z" fill="white"/>
<path d="M33.1998 18.6999C34.2491 18.6999 35.0998 17.8492 35.0998 16.7999C35.0998 15.7506 34.2491 14.8999 33.1998 14.8999C32.1505 14.8999 31.2998 15.7506 31.2998 16.7999C31.2998 17.8492 32.1505 18.6999 33.1998 18.6999Z" fill="white"/>
<path d="M40.2996 18.6001C40.1996 17.0001 39.9996 15.8001 39.5996 14.9001C39.1996 13.9001 38.6996 13.0001 37.7996 12.2001C36.8996 11.3001 36.0996 10.8001 35.0996 10.4001C34.0996 10.0001 32.9996 9.8001 31.3996 9.7001C29.7996 9.6001 29.1996 9.6001 24.9996 9.6001C20.7996 9.6001 20.2996 9.6001 18.5996 9.7001C16.9996 9.8001 15.7996 10.0001 14.8996 10.4001C13.8996 10.8001 12.9996 11.3001 12.1996 12.2001C11.3996 13.1001 10.7996 13.9001 10.3996 14.9001C9.99961 15.9001 9.79961 17.0001 9.69961 18.6001C9.59961 20.2001 9.59961 20.8001 9.59961 25.0001C9.59961 29.2001 9.59961 29.7001 9.69961 31.4001C9.79961 33.0001 9.99961 34.2001 10.3996 35.1001C10.7996 36.1001 11.2996 37.0001 12.1996 37.8001C13.0996 38.6001 13.8996 39.2001 14.8996 39.6001C15.8996 40.0001 16.9996 40.2001 18.5996 40.3001C20.1996 40.4001 20.7996 40.4001 24.9996 40.4001C29.1996 40.4001 29.6996 40.4001 31.3996 40.3001C32.9996 40.2001 34.1996 40.0001 35.0996 39.6001C36.0996 39.2001 36.9996 38.7001 37.7996 37.8001C38.6996 36.9001 39.1996 36.1001 39.5996 35.1001C39.9996 34.1001 40.1996 33.0001 40.2996 31.4001C40.3996 29.8001 40.3996 29.2001 40.3996 25.0001C40.3996 20.8001 40.3996 20.3001 40.2996 18.6001ZM37.5996 31.2001C37.4996 32.7001 37.2996 33.5001 37.0996 34.1001C36.7996 34.8001 36.4996 35.3001 35.8996 35.9001C35.3996 36.4001 34.7996 36.8001 34.0996 37.1001C33.5996 37.3001 32.6996 37.6001 31.1996 37.6001C29.5996 37.7001 29.0996 37.7001 24.9996 37.7001C20.8996 37.7001 20.3996 37.7001 18.7996 37.6001C17.2996 37.5001 16.4996 37.3001 15.8996 37.1001C15.1996 36.8001 14.6996 36.5001 14.0996 35.9001C13.5996 35.4001 13.1996 34.8001 12.8996 34.1001C12.6996 33.6001 12.3996 32.7001 12.3996 31.2001C12.2996 29.6001 12.2996 29.1001 12.2996 25.0001C12.2996 20.9001 12.2996 20.4001 12.3996 18.8001C12.4996 17.3001 12.6996 16.5001 12.8996 15.9001C13.1996 15.2001 13.4996 14.7001 14.0996 14.1001C14.5996 13.6001 15.1996 13.2001 15.8996 12.9001C16.3996 12.7001 17.2996 12.4001 18.7996 12.4001C20.3996 12.3001 20.8996 12.3001 24.9996 12.3001C29.0996 12.3001 29.5996 12.3001 31.1996 12.4001C32.6996 12.5001 33.4996 12.7001 34.0996 12.9001C34.7996 13.2001 35.2996 13.5001 35.8996 14.1001C36.3996 14.6001 36.7996 15.2001 37.0996 15.9001C37.2996 16.4001 37.5996 17.3001 37.5996 18.8001C37.6996 20.4001 37.6996 20.9001 37.6996 25.0001C37.6996 29.1001 37.5996 29.6001 37.5996 31.2001Z" fill="white"/>
</svg>

<svg fill="none" height="50" viewBox="0 0 50 50" width="50" xmlns="http://www.w3.org/2000/svg"><g fill="#fff"><path d="m24.9996 17.1001c-4.4 0-7.9 3.5-7.9 7.9s3.5 7.9 7.9 7.9 7.9-3.5 7.9-7.9-3.5-7.9-7.9-7.9zm0 13c-2.8 0-5.1-2.3-5.1-5.1s2.3-5.1 5.1-5.1 5.1 2.3 5.1 5.1-2.3 5.1-5.1 5.1z"/><path d="m33.1998 18.6999c1.0493 0 1.9-.8507 1.9-1.9s-.8507-1.9-1.9-1.9-1.9.8507-1.9 1.9.8507 1.9 1.9 1.9z"/><path d="m40.2996 18.6001c-.1-1.6-.3-2.8-.7-3.7-.4-1-.9-1.9-1.8-2.7-.9-.9-1.7-1.4-2.7-1.8s-2.1-.6-3.7-.7-2.2-.1-6.4-.1-4.7 0-6.4.1c-1.6.1-2.8.3-3.7.7-1 .4-1.9.9-2.7 1.8s-1.4 1.7-1.8 2.7c-.39999 1-.59999 2.1-.69999 3.7s-.1 2.2-.1 6.4 0 4.7.1 6.4c.1 1.6.3 2.8.69999 3.7.4 1 .9 1.9 1.8 2.7s1.7 1.4 2.7 1.8 2.1.6 3.7.7 2.2.1 6.4.1 4.7 0 6.4-.1c1.6-.1 2.8-.3 3.7-.7 1-.4 1.9-.9 2.7-1.8.9-.9 1.4-1.7 1.8-2.7s.6-2.1.7-3.7.1-2.2.1-6.4 0-4.7-.1-6.4zm-2.7 12.6c-.1 1.5-.3 2.3-.5 2.9-.3.7-.6 1.2-1.2 1.8-.5.5-1.1.9-1.8 1.2-.5.2-1.4.5-2.9.5-1.6.1-2.1.1-6.2.1s-4.6 0-6.2-.1c-1.5-.1-2.3-.3-2.9-.5-.7-.3-1.2-.6-1.8-1.2-.5-.5-.9-1.1-1.2-1.8-.2-.5-.5-1.4-.5-2.9-.1-1.6-.1-2.1-.1-6.2s0-4.6.1-6.2c.1-1.5.3-2.3.5-2.9.3-.7.6-1.2 1.2-1.8.5-.5 1.1-.9 1.8-1.2.5-.2 1.4-.5 2.9-.5 1.6-.1 2.1-.1 6.2-.1s4.6 0 6.2.1c1.5.1 2.3.3 2.9.5.7.3 1.2.6 1.8 1.2.5.5.9 1.1 1.2 1.8.2.5.5 1.4.5 2.9.1 1.6.1 2.1.1 6.2s-.1 4.6-.1 6.2z"/></g></svg>
